teams/dark/143.svg

<svg xmlns="http://www.w3.org/2000/svg" viewBox="0 0 300 300"><title>Philadelphia Phillies cap on dark logo</title><path fill="#fff" d="M200.78 45.66c21.88 10.06 33.73 27.35 33.73 48.97 0 1.27-.04 2.56-.12 3.86-2.49 40.58-33.8 55.44-68.64 68.1v69.8c0 9.76-4.4 18.84-12.41 25.58-8.34 7.03-19.58 10.35-29.32 8.66-7.27-1.28-12.39-5.35-14.4-11.46-.67-2.04-1-4.23-1-6.55 0-10.12 6.31-22.6 17.78-34.79V79.15c-10.66 5.04-18.51 15.06-18.51 21.35 0 .47.05.92.14 1.35.75 3.55 4.71 4.21 7.9 4.14l1.34-.03-.22 1.32c-.13.82-3.42 20.15-16.42 27.15-6.41 3.46-14.05 3.26-22.68-.6-7.33-3.29-12.25-10.07-13.87-19.08-2.92-16.34 5.33-35.9 22.07-52.33 26.25-25.58 78.73-33.25 114.62-16.76Zm-29.03 85.27c18.77-3.51 30.32-15.51 30.32-31.03 0-1.12-.05-2.27-.18-3.44-2.04-17.56-12.54-25.82-31.2-24.57 0 0-2.67.18-3.98.27v59.72l5.05-.94Zm-3.19 126.72h6.13V259h-2.29v6.24h-1.55V259h-2.29Zm13.86 0h2.67v7.6h-1.55v-6.06h-.04l-2.2 6.06h-1.5l-2.12-6.06h-.04v6.06h-1.56v-7.6h2.69l1.77 4.96h.05Z"/></svg>

<svg width="300" height="300" viewBox="0 0 300 300" fill="none" xmlns="http://www.w3.org/2000/svg">
<path d="M200.78 45.66C222.66 55.72 234.51 73.01 234.51 94.63C234.51 95.9 234.47 97.19 234.39 98.49C231.9 139.07 200.59 153.93 165.75 166.59V236.39C165.75 246.15 161.35 255.23 153.34 261.97C145 269 133.76 272.32 124.02 270.63C116.75 269.35 111.63 265.28 109.62 259.17C108.95 257.13 108.62 254.94 108.62 252.62C108.62 242.5 114.93 230.02 126.4 217.83V79.15C115.74 84.19 107.89 94.21 107.89 100.5C107.89 100.97 107.94 101.42 108.03 101.85C108.78 105.4 112.74 106.06 115.93 105.99L117.27 105.96L117.05 107.28C116.92 108.1 113.63 127.43 100.63 134.43C94.22 137.89 86.58 137.69 77.95 133.83C70.62 130.54 65.7 123.76 64.08 114.75C61.16 98.41 69.41 78.85 86.15 62.42C112.4 36.84 164.88 29.17 200.77 45.66H200.78ZM171.75 130.93C190.52 127.42 202.07 115.42 202.07 99.9C202.07 98.78 202.02 97.63 201.89 96.46C199.85 78.9 189.35 70.64 170.69 71.89C170.69 71.89 168.02 72.07 166.71 72.16V131.88L171.76 130.94L171.75 130.93Z" fill="white"/>
</svg>
